svgs/thin/hammer-war.svg

<svg xmlns="http://www.w3.org/2000/svg" viewBox="0 0 384 512"><!--! Font Awesome Pro 6.0.0-alpha3 by @fontawesome - https://fontawesome.com License - https://fontawesome.com/license (Commercial License) --><path d="M352.1 32.02c-4.297 0 5.189-1.538-128.1 23.98V32c0-17.67-14.33-32-32-32S160 14.33 160 32v24C26.85 30.51 36.2 32.02 31.89 32.02c-17.29 0-31.89 14.05-31.89 31.98v192c0 17.93 14.69 31.98 31.97 31.98c1.825 0-13.89 2.429 160-23.98c173.9 26.41 158.2 23.98 160.1 23.98c17.29 0 31.93-14.05 31.93-31.98V64C384 46.07 369.4 32.02 352.1 32.02zM176 32c0-8.82 7.176-16 16-16s16 7.18 16 16v24h-32V32zM368 256c0 8.853-7.803 17.53-18.85 15.68l-157.2-23.86L34.62 271.7C24.07 273.5 16 265.1 16 256V64c0-10.32 9.418-17.21 18.24-15.79L158.5 72h67.04l123.9-23.72C359.9 46.52 368 54.91 368 64V256zM216 304c-4.418 0-8 3.582-8 8l-.0002 184h-32l.0002-184c0-4.418-3.582-8-8-8s-8 3.582-8 8L160 496c0 8.836 7.164 16 16 16h32c8.836 0 16-7.164 16-16l.0002-184C224 307.6 220.4 304 216 304z"/></svg>

<svg xmlns="http://www.w3.org/2000/svg" viewBox="0 0 384 512"><!-- Font Awesome Pro 6.0.0-alpha2 by @fontawesome - https://fontawesome.com License - https://fontawesome.com/license (Commercial License) --><path d="M352.086 32.055C347.789 32.055 357.3 30.48 224 56V32C224 14.328 209.672 0 192 0S160 14.328 160 32V56C26.847 30.508 36.23 32.055 31.914 32.055C14.629 32.055 0 46.07 0 64V256C0 273.93 14.629 287.945 31.914 287.945C33.739 287.945 18.084 290.411 192 264C365.915 290.41 350.261 287.945 352.086 287.945C369.373 287.945 384 273.93 384 256V64C384 46.07 369.371 32.055 352.086 32.055ZM176 32C176 23.18 183.176 16 192 16S208 23.18 208 32V56H176V32ZM368 256C368 264.853 360.197 273.533 349.152 271.68L192 247.816L34.619 271.719C24.067 273.481 16 265.077 16 256V64C16 53.679 25.418 46.793 34.242 48.215L158.482 72H225.518L349.383 48.281C359.914 46.518 368 54.908 368 64V256ZM216 304C211.582 304 208 307.582 208 312V496H176V312C176 307.582 172.418 304 168 304S160 307.582 160 312V496C160 504.836 167.164 512 176 512H208C216.836 512 224 504.836 224 496V312C224 307.582 220.418 304 216 304Z"/></svg>
